X: 889
T: Snug in the Blanket
B:O'Neill's 889
Z:Transcribed by Dan G. Petersen, dangp@post6.tele.dk
M:6/8
L:1/8
K:G
G|:A2B cBc|EFE c2A|B2G AFD|GAG BAG|
A2B cBc|EFE c2A|BdB cAF|G3 BAG:|
FGA AFd|AFd AFd|FGA AFd|EFG GFE|
FGA AFd|AFd ABc|BdB cAF|G3 BAG:|
FGA AFD|DED AFD|FGA AFD|GAG BAG|
FGA AFD|DED ABc|BdB cAF|G3 BAG:|


